X:75
T: Tureengarbh Glen
T: Gleann an Tuar\'in Ghairbh
S: B.Breathnach:"Ceol Rince na hEireann" III/77
Z: B.Black
N: Relative of "Johnny I Do Miss You"
L: 1/8
M: 2/4
Q: 275
R: polka
K: G
ge|: dB AG|Bd Bd|cd/c/ Bc|A2-Ag/e/|
dB AG|Bd Bd|cd/c/ BA|1 G2 g>e :|2 G2 G||
A|Bd de|d2-de/d/|Bc/d/ ef|ed BA|
Bd de|d2-d>b|ba ag|ag ed|
Bd de|d2-de/d/|Bd ef|g>g fe|
dB AG|Bd Bd|cd/c/ BA|G2 G :|
